SVG_Azure_Grouped/Storage/Storage Account Encryption.svg

<?xml version="1.0" encoding="UTF-8" standalone="no"?>
<!-- Generated by Microsoft Visio, SVG Export Storage Account Encryption.svg Page-1 -->

<svg
   xmlns:dc="http://purl.org/dc/elements/1.1/"
   xmlns:cc="http://creativecommons.org/ns#"
   xmlns:rdf="http://www.w3.org/1999/02/22-rdf-syntax-ns#"
   xmlns:svg="http://www.w3.org/2000/svg"
   xmlns="http://www.w3.org/2000/svg"
   xmlns:sodipodi="http://sodipodi.sourceforge.net/DTD/sodipodi-0.dtd"
   xmlns:inkscape="http://www.inkscape.org/namespaces/inkscape"
   width="0.59053892in"
   height="0.78739291in"
   viewBox="0 0 42.518803 56.692199"
   xml:space="preserve"
   class="st4"
   version="1.1"
   id="svg45"
   sodipodi:docname="Storage Account Encryption.svg"
   style="font-size:12px;overflow:visible;color-interpolation-filters:sRGB;fill:none;fill-rule:evenodd;stroke-linecap:square;stroke-miterlimit:3"
   inkscape:version="0.92.5 (2060ec1f9f, 2020-04-08)"><metadata
   id="metadata49"><rdf:RDF><cc:Work
       rdf:about=""><dc:format>image/svg+xml</dc:format><dc:type
         rdf:resource="http://purl.org/dc/dcmitype/StillImage" /></cc:Work></rdf:RDF></metadata><sodipodi:namedview
   pagecolor="#ffffff"
   bordercolor="#666666"
   borderopacity="1"
   objecttolerance="10"
   gridtolerance="10"
   guidetolerance="10"
   inkscape:pageopacity="0"
   inkscape:pageshadow="2"
   inkscape:window-width="640"
   inkscape:window-height="480"
   id="namedview47"
   showgrid="false"
   inkscape:zoom="1.4192791"
   inkscape:cx="28.346665"
   inkscape:cy="37.785067"
   inkscape:window-x="0"
   inkscape:window-y="0"
   inkscape:window-maximized="0"
   inkscape:current-layer="svg45" />
	<style
   type="text/css"
   id="style2">
	<![CDATA[
		.st1 {fill:url(#grad0-6);stroke:none;stroke-linecap:butt;stroke-width:34}
		.st2 {fill:#50e6ff;stroke:none;stroke-linecap:butt;stroke-width:34}
		.st3 {fill:#ffffff;fill-opacity:0.2;stroke:none;stroke-linecap:butt;stroke-width:34}
		.st4 {fill:none;fill-rule:evenodd;font-size:12px;overflow:visible;stroke-linecap:square;stroke-miterlimit:3}
	]]>
	</style>

	<defs
   id="Patterns_And_Gradients">
		<linearGradient
   id="grad0-6"
   x1="0"
   y1="58.864034"
   x2="49.062761"
   y2="58.864034"
   gradientTransform="scale(0.86542214,1.1555055)"
   gradientUnits="userSpaceOnUse">
			<stop
   offset="0.225"
   stop-color="#32d4f5"
   stop-opacity="1"
   id="stop4" />
			<stop
   offset="0.475"
   stop-color="#31d1f3"
   stop-opacity="1"
   id="stop6" />
			<stop
   offset="0.635"
   stop-color="#2ec9eb"
   stop-opacity="1"
   id="stop8" />
			<stop
   offset="0.77"
   stop-color="#29bade"
   stop-opacity="1"
   id="stop10" />
			<stop
   offset="0.89"
   stop-color="#22a5cb"
   stop-opacity="1"
   id="stop12" />
			<stop
   offset="1"
   stop-color="#198ab3"
   stop-opacity="1"
   id="stop14" />
			<stop
   offset="1"
   stop-color="#198ab3"
   stop-opacity="1"
   id="stop16" />
		</linearGradient>
	</defs>
	<g
   id="g43"
   transform="translate(-34,-34.002112)">
		<title
   id="title20">Page-1</title>
		<g
   id="group20163-1"
   transform="translate(34,-34.0157)">
			<title
   id="title22">Storage Account Encryption.20163</title>
			<g
   id="group20164-2">
				<title
   id="title24">Icon-Lock-security-250</title>
				<g
   id="shape20165-3">
					<title
   id="title26">Sheet.20165</title>
					<path
   d="M 40.28,95.33 H 37.27 V 85.64 A 18.278,18.3696 -180 0 0 32.6,73.27 14.9576,15.0326 -180 0 0 20.98,68.02 15.093,15.1687 -180 0 0 9.37,73.27 17.9782,18.0683 -180 0 0 4.7,85.63 v 9.7 H 2.18 A 2.20819,2.21925 -180 0 0 0,97.51 v 25.02 a 2.21141,2.22249 -180 0 0 2.18,2.18 h 38.1 a 2.20496,2.21601 -180 0 0 2.18,-2.18 V 97.51 a 2.20174,2.21277 -180 0 0 -2.18,-2.18 z m -10.56,0 H 12.26 v -9.85 a 9.90944,9.95908 0 0 1 2.72,-6.78 7.79151,7.83055 0 0 1 11.83,0 9.69668,9.74526 0 0 1 1.01,1.36 9.34853,9.39536 0 0 1 1.89,5.42 z"
   class="st1"
   id="path28"
   inkscape:connector-curvature="0"
   style="fill:url(#grad0-6);stroke:none;stroke-width:34;stroke-linecap:butt" />
				</g>
				<g
   id="shape20166-7"
   transform="translate(0.818802,-0.369335)">
					<title
   id="title31">Sheet.20166</title>
					<path
   d="M 39.52,95.7 H 1.4 A 2.15339,2.16417 -180 0 0 0,96.24 l 40.92,28.47 a 2.17595,2.18685 -180 0 0 0.78,-1.64 V 97.89 A 2.21141,2.22249 -180 0 0 39.52,95.7 Z"
   class="st2"
   id="path33"
   inkscape:connector-curvature="0"
   style="fill:#50e6ff;stroke:none;stroke-width:34;stroke-linecap:butt" />
				</g>
				<g
   id="shape20167-9"
   transform="translate(0.0805908,-0.369335)">
					<title
   id="title36">Sheet.20167</title>
					<path
   d="M 2.18,95.7 H 40.3 a 2.15339,2.16417 0 0 1 1.4,0.54 L 0.78,124.71 A 2.16306,2.17389 0 0 1 0,123.07 V 97.89 A 2.20819,2.21925 0 0 1 2.18,95.7 Z"
   class="st3"
   id="path38"
   inkscape:connector-curvature="0"
   style="fill:#ffffff;fill-opacity:0.2;stroke:none;stroke-width:34;stroke-linecap:butt" />
				</g>
			</g>
		</g>
	</g>
</svg>

<?xml version="1.0" encoding="UTF-8" standalone="no"?>
<!DOCTYPE svg PUBLIC "-//W3C//DTD SVG 1.1//EN" "http://www.w3.org/Graphics/SVG/1.1/DTD/svg11.dtd">
<!-- Generated by Microsoft Visio, SVG Export Storage Account Encryption.svg Page-1 -->
<svg xmlns="http://www.w3.org/2000/svg" xmlns:xlink="http://www.w3.org/1999/xlink" xmlns:ev="http://www.w3.org/2001/xml-events"
		width="1.535in" height="1.7321in" viewBox="0 0 110.52 124.711" xml:space="preserve" color-interpolation-filters="sRGB"
		class="st4">
	<style type="text/css">
	<![CDATA[
		.st1 {fill:url(#grad0-6);stroke:none;stroke-linecap:butt;stroke-width:34}
		.st2 {fill:#50e6ff;stroke:none;stroke-linecap:butt;stroke-width:34}
		.st3 {fill:#ffffff;fill-opacity:0.2;stroke:none;stroke-linecap:butt;stroke-width:34}
		.st4 {fill:none;fill-rule:evenodd;font-size:12px;overflow:visible;stroke-linecap:square;stroke-miterlimit:3}
	]]>
	</style>

	<defs id="Patterns_And_Gradients">
		<linearGradient id="grad0-6" x1="0" y1="0" x2="1" y2="0" gradientTransform="rotate(88.554730392656 0.5 0.5)">
			<stop offset="0.225" stop-color="#32d4f5" stop-opacity="1"/>
			<stop offset="0.475" stop-color="#31d1f3" stop-opacity="1"/>
			<stop offset="0.635" stop-color="#2ec9eb" stop-opacity="1"/>
			<stop offset="0.77" stop-color="#29bade" stop-opacity="1"/>
			<stop offset="0.89" stop-color="#22a5cb" stop-opacity="1"/>
			<stop offset="1" stop-color="#198ab3" stop-opacity="1"/>
			<stop offset="1" stop-color="#198ab3" stop-opacity="1"/>
		</linearGradient>
	</defs>
	<g>
		<title>Page-1</title>
		<g id="group19708-1" transform="translate(34,-34.0157)">
			<title>Storage Account Encryption.19708</title>
			<g id="group19709-2">
				<title>Icon-Lock-security-250</title>
				<g id="shape19710-3">
					<title>Sheet.19710</title>
					<path d="M40.28 95.33 L37.27 95.33 L37.27 85.64 A18.278 18.3696 -180 0 0 32.6 73.27 A14.9576 15.0326 -180 0 0
								 20.98 68.02 A15.093 15.1687 -180 0 0 9.37 73.27 A17.9782 18.0683 -180 0 0 4.7 85.63 L4.7 95.33 L2.18
								 95.33 A2.20819 2.21925 -180 0 0 -0 97.51 L0 122.53 A2.21141 2.22249 -180 0 0 2.18 124.71 L40.28
								 124.71 A2.20496 2.21601 -180 0 0 42.46 122.53 L42.46 97.51 A2.20174 2.21277 -180 0 0 40.28 95.33
								 ZM29.72 95.33 L12.26 95.33 L12.26 85.48 A9.90944 9.95908 0 0 1 14.98 78.7 A7.79151 7.83055 0 0 1
								 26.81 78.7 A9.69668 9.74526 0 0 1 27.82 80.06 A9.34853 9.39536 0 0 1 29.71 85.48 L29.72 95.33 Z"
							class="st1"/>
				</g>
				<g id="shape19711-7" transform="translate(0.818802,-0.369335)">
					<title>Sheet.19711</title>
					<path d="M39.52 95.7 L1.4 95.7 A2.15339 2.16417 -180 0 0 0 96.24 L40.92 124.71 A2.17595 2.18685 -180 0 0 41.7
								 123.07 L41.7 97.89 A2.21141 2.22249 -180 0 0 39.52 95.7 Z" class="st2"/>
				</g>
				<g id="shape19712-9" transform="translate(0.0805908,-0.369335)">
					<title>Sheet.19712</title>
					<path d="M2.18 95.7 L40.3 95.7 A2.15339 2.16417 0 0 1 41.7 96.24 L0.78 124.71 A2.16306 2.17389 0 0 1 0 123.07
								 L0 97.89 A2.20819 2.21925 0 0 1 2.18 95.7 Z" class="st3"/>
				</g>
			</g>
		</g>
	</g>
</svg>
